src/lib/packages/icons/src/assets/line/envelope-check.svg

<svg width="24" height="24" viewBox="0 0 24 24" fill="none" xmlns="http://www.w3.org/2000/svg">
<path d="M11 19.75H5C2.582 19.75 1.25 18.418 1.25 16V7C1.25 4.582 2.582 3.25 5 3.25H17C19.418 3.25 20.75 4.582 20.75 7V10C20.75 10.414 20.414 10.75 20 10.75C19.586 10.75 19.25 10.414 19.25 10V7C19.25 5.423 18.577 4.75 17 4.75H5C3.423 4.75 2.75 5.423 2.75 7V16C2.75 17.577 3.423 18.25 5 18.25H11C11.414 18.25 11.75 18.586 11.75 19C11.75 19.414 11.414 19.75 11 19.75ZM12.0291 12.179L16.9409 8.60699C17.2759 8.36399 17.35 7.89401 17.106 7.55901C16.863 7.22501 16.3951 7.149 16.0581 7.394L11.146 10.966C11.058 11.03 10.941 11.03 10.853 10.966L5.94092 7.394C5.60292 7.149 5.13607 7.22601 4.89307 7.55901C4.64907 7.89401 4.72311 8.36299 5.05811 8.60699L9.96997 12.18C10.278 12.404 10.639 12.515 10.999 12.515C11.359 12.515 11.7221 12.403 12.0291 12.179ZM22.75 17C22.75 14.381 20.619 12.25 18 12.25C15.381 12.25 13.25 14.381 13.25 17C13.25 19.619 15.381 21.75 18 21.75C20.619 21.75 22.75 19.619 22.75 17ZM21.25 17C21.25 18.792 19.792 20.25 18 20.25C16.208 20.25 14.75 18.792 14.75 17C14.75 15.208 16.208 13.75 18 13.75C19.792 13.75 21.25 15.208 21.25 17ZM18.113 18.364L19.78 16.697C20.073 16.404 20.073 15.929 19.78 15.636C19.487 15.343 19.012 15.343 18.719 15.636L17.582 16.772L17.2791 16.469C16.9861 16.176 16.511 16.176 16.218 16.469C15.925 16.762 15.925 17.237 16.218 17.53L17.051 18.363C17.192 18.504 17.3821 18.583 17.5811 18.583C17.7821 18.583 17.973 18.504 18.113 18.364Z" fill="currentColor"/>
</svg>

<svg xmlns="http://www.w3.org/2000/svg" width="24" height="24" fill="none"><path fill="currentColor" d="M11 19.75H5c-2.418 0-3.75-1.332-3.75-3.75V7c0-2.418 1.332-3.75 3.75-3.75h12c2.418 0 3.75 1.332 3.75 3.75v3a.75.75 0 0 1-1.5 0V7c0-1.577-.673-2.25-2.25-2.25H5c-1.577 0-2.25.673-2.25 2.25v9c0 1.577.673 2.25 2.25 2.25h6a.75.75 0 0 1 0 1.5Zm1.03-7.571 4.91-3.572a.75.75 0 1 0-.882-1.213l-4.912 3.572a.248.248 0 0 1-.293 0L5.941 7.394a.75.75 0 0 0-.883 1.213L9.97 12.18a1.747 1.747 0 0 0 2.06-.001ZM22.75 17A4.756 4.756 0 0 0 18 12.25 4.756 4.756 0 0 0 13.25 17 4.756 4.756 0 0 0 18 21.75 4.756 4.756 0 0 0 22.75 17Zm-1.5 0A3.254 3.254 0 0 1 18 20.25 3.254 3.254 0 0 1 14.75 17 3.254 3.254 0 0 1 18 13.75 3.254 3.254 0 0 1 21.25 17Zm-3.137 1.364 1.667-1.667a.75.75 0 1 0-1.061-1.061l-1.137 1.136-.303-.303a.75.75 0 0 0-1.061 1.061l.833.833a.749.749 0 0 0 1.062.001Z"/></svg>
